!!!SOCIAL_FUNCTION:	songs of the sun dance
!!!PDT:	1918

Specific Region: Dakotas, Minnesota, Montana, Nebraska
!!!REG: Dakotas and Montana
!!!LING_GROUP: Siouan
!!!LANG: Tone
!!!OTL@ENG: Song of Final Visit to the Vapor Lodge
!!!ONM: No. 18
**kern
*Imale
*clefF4
*k[f#c#]
*M3/4
*MM63
8f#
8.f#
16f#
=1
4.f#
8f#
8.f#
16f#
=2||
*M2/4
2e
=3
4e
8d
8d
=4
4d
[4d
=5
4d]
8.d
16e
=6
2e
=7||
*M3/4
2e
8.e
16d
=8
2d
4d
=9||
*M2/4
4.d
8B
=10
8B
8B
8B
8A
=11
2B
=12
8.B
16B
8B
16.B
32d
=13
4.B
8B
=14
8B
16d
16d
8B
8A
=15
2A
=16
2A
=17
4F#
8.B
16B
=18
4B
8F#
8F#
=19||
*M3/4
4F#
2F#
=20
2F#
4F#
==
*-
!!!CNT: Native American -- Sioux
!!!MRD: 1911/07//-1914///
!!!OCL: Frances Densmore
!!!YOR1: Teton Sioux Music, Bulletin 61,
!!!YOR2: Bureau of American Ethnology, Smithsonian Institution
!!!PPR: Government Printing Office
!!!PPP: Washington, D.C.
!!!PDT: 1918///
!!!ENC: Craig Stuart Sapp
!!!END: 2002/03/25/
!!!EEV: 2002/03/31/
!!!AGN: Ceremonial Song/Song of the Sun Dance
!!!MPN@@SIO: Itung'kasang-lu'ta
!!!MPN@ENG: Red Weasel
!!!TXO: Teton Sioux
!!!MLC: Standing Rock Reservation, South Dakota, United States of America
!!!ARL: 45.9/-100.7#
!!!catalog: Catalogue No. 631
!!!PPG: 124
!!!EFL: 18/245
!!!VTS: 910828035
